X: 1265
T: Korkma, Sönmez...
C: Ali Rıfat Çağatay
O: Turkey
F: http://compmusic.upf.edu/node/140
N: acemasiran--mars--nimsofyan--korkma_sonmez--ali_rifat_cagatay
N: makam= acemasiran
N: form= mars
N: usul= nimsofyan = 2/4
M: 2/4
L: 1/16
K: C _B   
Q: 1/4=84
%%MIDI tuningsystem comma53
f4 f4  | f4 (3c2d2e2  | f4 (3c2d2e2  | f4 a4  | \
w:  Kork ma   |  sön mez   |  bu  şa  |  fak lar  | 
g4 f4  | e4 (3d2e2f2  | g3f e3d  | 
w:  da  yü  |  zen  al   |  san  | 
c4 (3d2e2f2  | g3f e3d  | c4 a4  | g3f (3e2f2g2  | \
w:  cak  SAZ  |  al   |  *  san  |  cak    | 
f4 z4  | c4 d3e  | f3c d3e  | 
w:   |  SAZ  |   | 
f3c d3e  | f4 z4  | a4 a4  | b4 a4  | g4 f3g  | \
w:   |   |  Sön me  |  den  yur  |  du mun   | 
a3f e4  | d3e f3a  | g4 f4  | 
w:  üs *  tün  |  de  *  tü  |  ten  en   | 
e4 (3d2e2g2  | c4 z4  | e3d f3e  | g3f a3g  | \
w:  son  o  |  cak   |  son   |  *  *  o  | 
f4 e3g  | f4 z4  | a4 a4  | 
w:  cak    |   |  O  be  | 
b4 a4  | g4 f3g  | a3f e4  | d3e f3a  | g4 f4  | \
w:  nim  mil  |  le ti  |  min  *  yıl  |  dı *  zı  |  dır  par  | 
e4 (3d2e2g2  | c4 z4  | (3B2A2B2 d4  | 
w:  la ya  |  cak    |  O  *  *  be  | 
c4 g4  | f4 _e4  | d4 c4  | B4 d4  | c4 B4  | \
w:  nim dir   |  o  be  |  nim  mil  |  le ti  |  min dir   | 
A4 G3A  | F4 z4  | (3B2A2B2 d4  | c4 g4  | 
w:  an  |  cak    |  O  *  *  be  |  nim dir   | 
f4 _e4  | d4 c4  | B4 d4  | c4 B4  | A4 G3A  | \
w:  o  be  |  nim  mil  |  le ti  |  min dir   |  an  | 
F4 z4  | |


